!!!COM: Bach, Johann Sebastian
!!!CDT: 1685/3//-1750/7/28/
!!!OTL@@DE: Herr Christ, der ein'ge Gott's Sohn
!!!AGN: 4-Part Chorale
!!!SCT: BH 303
!!!SCT: BWV 96
**harm	**root	**kern	**kern	**kern	**kern
!	!	!bass	!tenor	!alto	!soprno
*	*Iorgan	*Iorgan	*Iorgan	*Iorgan	*Iorgan
*M4/4	*M4/4	*M4/4	*M4/4	*M4/4	*M4/4
*met(c)	*met(c)	*met(c)	*met(c)	*met(c)	*met(c)
*MM60	*MM60	*MM60	*MM60	*MM60	*MM60
*k[f#c#]	*k[f#c#]	*k[f#c#]	*k[f#c#]	*k[f#c#]	*k[f#c#]
*D:	*D:	*D:	*D:	*D:	*D:
*>[A,A,B]	*>[A,A,B]	*>[A,A,B]	*>[A,A,B]	*>[A,A,B]	*>[A,A,B]
*>A	*>A	*>A	*>A	*>A	*>A
I	4FF	4D	4F#	4A	4d
=1	=1	=1	=1	=1	=1
IV	4BB-	4GG	4G	8B	8d
.	.	.	.	8c#	8e
I	4FF	4D	4A	4d	4f#
V	4CC	4AA	8A	4c#	4e
.	.	.	8G	.	.
vi	4DD	4BB	4F#	4B	4d
=2	=2	=2	=2	=2	=2
vii7b	4EE	4EE	4G	4B	2c#
V/vi	4AA	4FF#	8F#	4A#	.
.	.	.	8E	.	.
vi;	4DD;	4BB;	4D;	4F#;	4B;
V/ii	4DD	4BB	4B	4d#	4f#
=3	=3	=3	=3	=3	=3
ii	4GG	8E	4B	8e	4g
.	.	8F#	.	8d	.
V7d	4CC	4G	4A	4c#	4e
I	4FF	8F#	4A	4d	4f#
.	.	8D	.	.	.
V	4CC	4AA	8A	4c#	4e
.	.	.	8G	.	.
=4	=4	=4	=4	=4	=4
I;	2.FF;	2.DD;	2.F#;	2.A;	2.d;
=:|!	=:|!	=:|!	=:|!	=:|!	=:|!
*>B	*>B	*>B	*>B	*>B	*>B
I	4FF	8D	4F#	4A	8d
.	.	8C#	.	.	8e
=5	=5	=5	=5	=5	=5
vi	4DD	4BB	4B	4d	4f#
V7d/ii	4DD	4AA	4B	4d#	4f#
iib	4GG	8GG	4B	4e	4g
.	.	8FF#	.	.	.
ii	4GG	4EE	4B	4e	4g
!!linebreak: 2
=6	=6	=6	=6	=6	=6
Ib	2FF	4.FF#	2A	4e	2a
.	.	.	.	4d	.
.	.	8GG	.	.	.
V;	4CC;	4AA;	4A;	4c#;	4e;
Vb	4CC	4C#	4A	4e	4a
=7	=7	=7	=7	=7	=7
I	4FF	4D	4A	4d	4f#
viioD7/ii	4FF#	4D#	4A	4c	4f#
ii	4GG	4E	4G	4B	4e
viioD7/iii	4GG#	4E#	4G#	4B	4d
=8	=8	=8	=8	=8	=8
iii	4AA	4F#	8C#	4B	2c#
.	.	.	8D	.	.
V7/vi	4AA	4FF#	4E	4A#	.
IV;	4BB-;	4GG;	4D;	4B;	4B;
viib/ii	4FF#	4FF#	4A	4d#	4f#
=9	=9	=9	=9	=9	=9
ii	4GG	8EE	4B	8e	4g
.	.	8FF#	.	8d	.
V7d	4CC	4GG	4A	4c#	4e
Ib	4FF	8FF#	4A	4d	4f#
.	.	8GG	.	.	.
V	4CC	4AA	8A	4c#	4e
.	.	.	8G	.	.
=10	=10	=10	=10	=10	=10
I;	2.FF;	2.DD;	2.F#;	2.A;	2.d;
==	==	==	==	==	==
*-	*-	*-	*-	*-	*-
!!chor2scor: -l 2 -s 0.6 -o %b.pmx
!!!YEC: Copyright 1994, David Huron
!!!YEC: Changes/Additions 2001 by Craig Stuart Sapp
!!!YEN: United States of America
!!!SMA: 371 Bach Chorales, edited by Ludwig Erk, C.F. Peters
!!!PDT: 1850, 1865
!!!ONB: Harmony and Root analysis done manually
